Obsidian/actions/24s/colorneg.svg

<svg height="24" viewBox="0 0 24 24" width="24" xmlns="http://www.w3.org/2000/svg"><path d="m0 .0390625v15.9999995h16v-15.9999995zm15 1v13.9999995h-14l3.46875-3.466796c.9051.905 2.15025 1.46875 3.53125 1.46875 2.7614 0 5-2.2386 5-5.0000004 0-1.3807-.56388-2.62645-1.46875-3.53125l-7.0625 7.0605464c-.9049-.904999-1.46875-2.1502495-1.46875-3.5312495 0-2.7614 2.2386-5 5-5 1.3807 0 2.62645.5658331 3.53125 1.4707031z" fill="#bebebe" transform="translate(4 4)"/></svg>

<svg xmlns="http://www.w3.org/2000/svg" width="24" height="24" viewBox="0 0 24 24">
 <defs>
  <style id="current-color-scheme" type="text/css">
   .ColorScheme-Text { color:#bebebe; } .ColorScheme-Highlight { color:#4285f4; }
  </style>
 </defs>
 <path style="fill:currentColor" class="ColorScheme-Text" d="M 0 0.0390625 L 0 16.039062 L 16 16.039062 L 16 0.0390625 L 0 0.0390625 z M 15 1.0390625 L 15 15.039062 L 1 15.039062 L 4.46875 11.572266 C 5.37385 12.477266 6.619 13.041016 8 13.041016 C 10.7614 13.041016 13 10.802416 13 8.0410156 C 13 6.6603156 12.43612 5.4145656 11.53125 4.5097656 L 4.46875 11.570312 C 3.56385 10.665313 3 9.4200625 3 8.0390625 C 3 5.2776625 5.2386 3.0390625 8 3.0390625 C 9.3807 3.0390625 10.62645 3.6048956 11.53125 4.5097656 L 15 1.0390625 z" transform="translate(4 4)"/>
</svg>
